X:1
T:Title
%%score ( 1 2 ) { ( 3 5 ) | ( 4 6 ) }
L:1/8
Q:1/4=120
M:none
K:C
V:1 treble nm="Part_1"
V:2 treble 
V:3 treble nm="Part_2"
V:5 treble 
V:4 treble 
V:6 treble 
V:1
 x8 | x8 | x8 | x8 | x8 | x8 | x8 | x8 | D3 E F2 x2 | z !>!E4 G2 x | A3 !>!B !>!c2 x2 | %11
 z !wedge!B4 B2 x | (3d2!<(! !>!d2 !>!d2 x4 | (3!>!d2 c2!<)! B2 x4 |!>(! !>!B2 A3!>)! G x2 | %15
 (3:2:2G4 G2 x4 | (3G2 !>!E2 !>!F2 x4 | (3G2 !wedge!C2 D2 x4 | E2 D4 x2 | C4 G2 x2 | %20
 A3 !>!B !>!c2 x2 | z !>!B4 B2 x | (3:2:2!>!d2 d (3B !>!cd x4 | e(3d ed c B x3 | !>!B2 A3 G x2 | %25
 G4!p! G2 x2 | GF GE FG x2 |!<(! .cB cA B!<)!c x2 | !>!dc dB cd x2 | e/f/ ed c B x3 | %30
 (3A2 A2 !>!B2 x4 | (3c2 c2 d2 x4 | !>!e2 d3 !>!c x2 | !>!!fermata!c6 x2 | (3z2 z2!p! G2 x4 | %35
 (6:4:3c2 !tenuto!c3 e x4 | (3c2 !wedge!c2 E2 x4 | (3G2 G2 G2 x4 | E2 !>!C2 c2 x2 | %39
 !>!e2 (3:2:2e2 z e2 x3 | (3c2 c2 G2 x4 | (6:4:2d2 z (3:2:2e z/ (3d c z (3:2:2B z/ x4 | %42
 (3:2:2B2 A4 x4 | G4 G2 x2 | (3E2 !wedge!C2 !tenuto!c2 x4 | (3A2 F2 f2 x4 | %46
 !^!d2 (3:2:2c2 z c2 x3 | !^!dc de f2 x2 | (3:2:2e4 G2 x4 | !>!c2 A2 d2 x2 | (3B2 B2 c2 x4 | %51
 d2 x !>!c B x3 | B2 A4 x2 | (3:2:2G4 G2 x4 | (3G2 !>!E2 !>!F2 x4 | G2 !>!C2 z !>!c x2 | %56
 c2 A2 !>!_B2 x2 | (3c2 A2 F2 x4 | A2 G4 x2 | F4!p! C2 x2 | D3 E F2 x2 | z !>!E4 G2 x | %62
 A3 !>!B !>!c2 x2 | z !wedge!B4 B2 x | (3d2 !>!d2 !>!d2 x4 | (3d2 c2 B2 x4 | !>!B2 A3 G x2 | %67
 G4!p! G2 x2 | GF GE FG x2 |!<(! cB cA Bc x2!<)! | d.c dB cd x2 | e/f/ ed c B x3 | %72
 (3A2 A2 !>!B2 x4 | (3c2 c2 d2 x4 | !>!e2 d3 !>!c x2 | !fermata!c6 x2 | (3z2 z2!p! G2 x4 | %77
 (6:4:3c2 c3 e x4 | (3c2 c2 E2 x4 | G2 (3G2 G2 z2 x27/8 | E2 !>!C2 c2 x2 | %81
[M:2/4][K:treble] e2 e2 x4 | (3c2 c2 G2 x4 | d2 x !>!cB x3 | (3:2:2!>!B2 A4 x4 | (3:2:2G4 G2 x4 | %86
 (3E2!<(! C2!<)! c2 x4 | (3A2 F2 f2 x4 | (3d2 c2 z2 x4 | (3dc d e f2 x3 | (3:2:2e4 G2 x4 | %91
!<(! c2 A2 d2 x2!<)! | (3B2 !wedge!B2 c2 x4 | (6:4:2d2 z (6:4:3!tenuto!ed c(6:4:2.B z/ x3 | %94
!>(! B2 A4 x2!>)! | (3:2:2G4 G2 x4 | (3G2 E2 !>!F2 x4 | G2 !>!C2 z !>!c x2 | c2 A2 !>!_B2 x2 | %99
 (3c2 A2 F2 x4 | A2 G4 x2 | F4!p! C2 x2 | D3 E F2 x2 | z !>!E4 G2 x | A3 !>!B !>!c2 x2 | %105
 z !wedge!B4 B2 x | (3!>!d2 d2 !>!d2 x4 | (3d2 c2 B2 x4 | !>!B2 A3 G x2 | G4!p! G2 x2 | %110
 GF GE FG x2 |!<(! .cB cA B!<)!c x2 | dc dB cd x2 | e/f/ e d cB x3 | (3A2 A2 !>!B2 x4 | %115
 (3c2 c2 d2 x4 | !>!e2 d3 !>!c x2 | !fermata!c6 x2 |] %118
V:2
 x8 | x8 | x8 | x8 | x8 | x8 | x8 | x8 | x8 | x8 | x8 | x8 | x8 | x8 | x8 | x8 | x8 | x8 | x8 | %19
 x8 | x8 | x8 | x8 | x8 | x8 | x8 | x8 | x8 | x8 | x8 | x8 | x8 | x8 | x8 | x8 | x8 | x8 | x8 | %38
 x8 | x4 (3:2:2z z/ x4 | x8 | x10 | x8 | x8 | x8 | x8 | x4 (3:2:2z z/ x4 | x8 | x8 | x8 | x8 | %51
 z ed x5 | x8 | x8 | x8 | x8 | x8 | x8 | x8 | x8 | x8 | x8 | x8 | x8 | x8 | x8 | x8 | x8 | x8 | %69
 x8 | x8 | x8 | x8 | x8 | x8 | x8 | x8 | x8 | x8 | x14/3 (3:2:1z x97/24 | x8 | %81
[M:2/4][K:treble] z e2 x5 | x8 | z e d x5 | x8 | x8 | x8 | x8 | x4/3 z (3:2:1c2 x13/3 | x8 | x8 | %91
 x8 | x8 | x8 | x8 | x8 | x8 | x8 | x8 | x8 | x8 | x8 | x8 | x8 | x8 | x8 | x8 | x8 | x8 | x8 | %110
 x8 | x8 | x8 | x8 | x8 | x8 | x8 | x8 |] %118
V:3
 x8 | x8 | x8 | x8 | x8 | x8 | x8 | x8 | [CD]2 B,4 F2 | E2 C2 G2- x2 | G2 ^F2 [Fc]2 x2 | %11
 [GB]2 G2 B2 x2 | d2 d2 d2 x2 | d2 c2 x4 |!>(! [DG]6!>)! ^F2 | [B,G]2 G,2 [G,EG]2 x2 | %16
 [EG]2 [CE]2 F2 x2 | [CG]2 [A,C]4 D2 | z2 D4 x2 | [CC]2 G4- x2 | G2 ^F2 [Fc]2 x2 | %21
 [GB]2 G2 [GB]2 x2 | [DGBd]6 x2 | d2 c2 B2 x2 | [GB]2 A4 ^F2 | [B,G]2 G,2!p! G2 x2 | [G,CG]6 x2 | %27
 G2 F2 c2- x2 | c2 B2 d2- x2 | d2 c2 [ce]2 x2 | [CFA]2 !wedge![A,CA]2 x4 | %31
 [CEc]2 [CGc]2 [Acd]2 x2 | [Gce]2 !>![FGBd]4 x2 | .[EGc]3 x5 | [CEG]6 x2 | [G,CEG]6 x2 | %36
 [G,CEG]6 x2 | [B,DFG]6 x2 | [CEG]6 x2 | [CEG]6 x3 | [CEG]6 x2 | d2 c2 B2 x4 | [DFB]3 z/4 x19/4 | %43
 [B,G]6 x2 | [EG]6 x2 | [FA]6 x2 | G4 c2- x3 | c2 B2 d2 x2 | G6 x2 | c2 A/ d2 x7/2 | %50
 [DGB]4 [D^Fc]2 x2 | d2 c3 B x2 | [DA]4 A4 | [B,G]4 [E,G,EG]2 x2 | [EG]2 [CE]2 [DF]2 x2 | %55
 [G,EG]2 C2 [CAc]2 x2 | [Ac]2 [FA]2 [E_B]2 x2 | [Fc]2 F F2 x3 | [DF]6 E2 | [CF]2!p! C4- x2 | %60
 [CD]2 B,4 F2 | E2 C2 G2- x2 | G2 ^F2 [Fc]2 x2 | [GB]2 G2 B2 x2 | d2 d2 d2 x2 | d2 c2 B2 x2 | %66
 [DG]6 z x | [B,G]2 G,2!p! G2 x2 | [G,CG]6 x2 | G2 F2 c2- x2 | c2 B2 d2- x2 | d2 c2 [ce]2 x2 | %72
 [CFA]2 !wedge!!^![A,CA]2 x4 | [CEc]2 [CGc]2 [Acd]2 x2 | [Gce]2 x6 | .[EGc]3 x5 |!p! [G,CEG]6 x2 | %77
 [G,CEG]6 x2 | [G,CEG]6 x2 | [B,DFG]6 x27/8 | [CEG]6 x2 | [CEG]6 x2 | [CEG]6 x2 | d2 c2 B2 x2 | %84
 [DG]6 z/4 x7/4 | [B,G]6 x2 |!<(! [EG]6 x2!<)! | [FA]6 x2 | G4 c2- x2 | c2 B2 d2 x2 | G6 x2 | %91
!<(! c2 A/!<)! d2 x7/2 | [DGB]4 [D^Fc]2 x2 | d2 c3 B x2 |!>(! D2 A4 [C^F]2!>)! | %95
 [B,G]4 [G,EG]2 x2 | [EG]2 [CE]2 [DF]2 x2 | [G,EG]2 C2 [CAc]2 x2 | [Ac]2 [FA]2 [E_B]2 x2 | %99
 [Fc]2 F F2 x3 | [DF]6 E2 | [CF]2!p! C4- x2 | [CD]2 B,4 F2 | E2 C2 G2- x2 | G2 ^F2 [Fc]2 x2 | %105
 [GB]2 G2 B2 x2 | d2 d2 d2 x2 | d2 c2 B2 x2 | [DFB]3 ^F2 x3 | [B,G]2 G,2!p! G2 x2 | [G,CG]6 x2 | %111
!<(! G2 F2!<)! c2- x2 | c2 B2 d2- x2 | d2 c2 [ce]2 x2 | [CFA]2 !wedge!!^![A,CA]2 x4 | %115
 [CEc]2 [CGc]2 [Acd]2 x2 | [Gce]2 x6 |!<(! .[EGc]3 x5!<)! |] %118
V:4
 x8 | x8 | x8 | x8 | x8 | x8 | x8 | x8 | x8 | G,6 x2 | [A,,A,]6 x2 | [G,,G,]6 x2 | B,,6 x2 | %13
 C,6 x2 | D,6 x2 | x8 | [C,,C,]4 [D,,D,]2 x2 | [E,,E,]2 [F,,F,]4 x2 | G,4 F,2 x2 | %19
 x4[I:staff -1] D2[I:staff +1] x2 | [A,,A,]6 x2 | [G,,G,]6 x2 | x8 | C,6 x2 | D,6 x2 | x8 | x8 | %27
 A,,6 x2 | G,,6 x2 | C,6 x2 | x3[I:staff -1] [DFB]2[I:staff +1] x3 | x8 | x8 | x8 | C,,4- x4 | %35
 C,,6 x2 | C,,4- x4 | C,,6 x2 | C,,4- x4 | C,,6 x3 | x8 | B,,2 C,4 x4 | D,6 x2 | x8 | x8 | x8 | %46
 [G,B,]2 [E,C]4 x3 | D4 B,2 x2 | C6 x2 | A,,2 D,4 x2 | x8 | B,,2 C,4 x2 | D,6 x2 | x8 | %54
 [C,,C,]6 x2 | x8 | [F,,F,]2 F,,2 G,,2 x2 | A,,2 x6 | C,6 x2 | x8 | x8 | G,6 x2 | [A,,A,]6 x2 | %63
 [G,,G,]6 x2 | B,,6 x2 | C,6 x2 | D,6 x2 | x8 | x8 | A,,6 x2 | G,,6 x2 | C,6 x2 | %72
 x3[I:staff -1] [DFB]2[I:staff +1] x3 | x8 | x[I:staff -1] !>![FGBd]4[I:staff +1] x3 | x8 | %76
 C,,4- x4 | C,,6 x2 | C,,4- x4 | C,,6 x27/8 | C,,4- x4 | C,,6 x2 | x8 | B,,2 C,4 x2 | D,6 x2 | x8 | %86
 x8 | x8 | [G,B,]2 [E,C]4 x2 | D4 B,2 x2 | C6 x2 | A,,2 D,4 x2 | x8 | B,,2 C,4 x2 | x8 | x8 | %96
 [C,,C,]6 x2 | x8 | [F,,F,]2 F,,2 G,,2 x2 | A,,2 x6 | C,6 x2 | x8 | x8 | G,6 x2 | [A,,A,]6 x2 | %105
 [G,,G,]6 x2 | B,,6 x2 | C,6 x2 | D,6 x2 | x8 | x8 | A,,6 x2 | G,,6 x2 | C,6 x2 | %114
 x3[I:staff -1] [DFB]2[I:staff +1] x3 | x8 | x[I:staff -1] !>![FGBd]4[I:staff +1] x3 | x8 |] %118
V:5
 x8 | x8 | x8 | x8 | x8 | x8 | x8 | x8 |[I:staff +1] [D,F,]6 x2 |[I:staff -1] C2 C2 D2 x2 | %10
 C4 C2 x2 | D6 x2 | [DG]6 x2 | [EG]3 B2 x3 | [DGB]4 A4 |[I:staff +1] G,,6 x2 | %16
[I:staff -1] G,4 [G,B,]2 x2 | G,2 [A,C]4 x2 | z2 x2 B,2 x2 |[I:staff +1] [C,E,]4 [B,,G,]2 x2 | %20
[I:staff -1] C4 C2 x2 | D4 D2 x2 |[I:staff +1] B,,6 x2 |[I:staff -1] [EG]6 x2 | D6 x2 | %25
[I:staff +1] G,6 x2 | [E,,E,]6 x2 |[I:staff -1] !tenuto![A,C]4 [CF] x3 | [DG]4 [GB]2 x2 | %29
 [EG]4 G2 x2 |[I:staff +1] F,2 [F,,F,][G,,G,] x4 | [A,,A,]2 [E,,E,]2 [F,,F,]2 x2 | %32
 [G,,G,]2 !>![G,,,G,,]4 x2 | !fermata![C,,C,]6 x2 | C,6- x2 | C,6 x2 | C,6- x2 | C,6 x2 | C,6- x2 | %39
 C,6 x3 | C,6 x2 |[I:staff -1] [DG]2 [EG]4 x4 | [DFB]2 A4 x2 |[I:staff +1] G,,6 x2 | [C,C]6 x2 | %45
 [F,C]6 x2 |[I:staff -1] D2 E2 G2 x3 | F6 x2 | E6 x2 | [CE]2 A2 x4 |[I:staff +1] G,,4 A,,2 x2 | %51
[I:staff -1] [DG]2 [EG]4 x2 | [Ac]4 x2 [C^F]2 |[I:staff +1] G,,6 x2 |[I:staff -1] G,4 G,2 x2 | %55
[I:staff +1] [C,,C,]6 x2 |[I:staff -1] C4 C2 x2 | C2 [FA]2 x4 | [DFA]4 G4 | %59
[I:staff +1] [F,A,]4 [E,G,]2 x2 | [D,F,]6 x2 |[I:staff -1] C2 C2 D2 x2 | C4 C2 x2 | D6 x2 | %64
 [DG]6 x2 | [EG]6 x2 | [DGB]4 A4 |[I:staff +1] G,,6 x2 | [E,,E,]6 x2 |[I:staff -1] [A,C]4 [CF] x3 | %70
 [DG]4 [GB]2 x2 | [EG]4 G2 x2 |[I:staff +1] F,2 [F,,F,][G,,G,] x4 | [A,,A,]2 [E,,E,]2 [F,,F,]2 x2 | %74
 [G,,G,] !>![G,,,G,,]4 x3 | !fermata![C,,C,]6 x2 | C,6- x2 | C,6 x2 | C,6- x2 | C,6 x27/8 | %80
 C,6- x2 | C,6 x2 | C,6 x2 |[I:staff -1] [DG]2 [EG]4 x2 | [DGB]4 A4 |[I:staff +1] G,,6 x2 | %86
 [C,C]6 x2 | [F,C]6 x2 |[I:staff -1] D2 E2 G2 x2 | F6 x2 | E6 x2 | [CE]2 A2 x4 | %92
[I:staff +1] G,,4 A,,2 x2 |[I:staff -1] [DG]2 [EG]4 x2 |[I:staff +1] D,6 x2 | G,,6 x2 | %96
[I:staff -1] G,4 G,2 x2 |[I:staff +1] [C,,C,]6 x2 |[I:staff -1] C4 C2 x2 | C2 [FA]2 x4 | %100
 [DFA]4 G4 |[I:staff +1] [F,A,]4 [E,G,]2 x2 | [D,F,]6 x2 |[I:staff -1] C2 C2 D2 x2 | C4 C2 x2 | %105
 D6 x2 | [DG]6 x2 | [EG]6 x2 | [DFB]2 A4 x2 |[I:staff +1] G,,6 x2 | [E,,E,]6 x2 | %111
[I:staff -1] [A,C]4 [CF]2 x2 | [DG]4 [GB]2 x2 | [EG]4 G2 x2 |[I:staff +1] F,2 [F,,F,][G,,G,] x4 | %115
 [A,,A,]2 [E,,E,]2 [F,,F,]2 x2 | [G,,G,] !>![G,,,G,,]4 x3 | .[C,,C,]6 x2 |] %118
V:6
 x8 | x8 | x8 | x8 | x8 | x8 | x8 | x8 | x8 | C,4 B,,2 x2 | x8 | x8 | x8 | x8 | x8 | x8 | x8 | x8 | %18
 G,,6 x2 | x8 | x8 | x8 | x8 | x8 | x8 | x8 | x8 | x8 | x8 | x8 | x8 | x8 | x8 | x8 | x8 | x8 | %36
 x8 | x8 | x8 | x9 | x8 | x10 | x8 | x8 | x8 | x8 | x9 | D,6 x2 | x8 | x8 | x8 | x8 | x8 | x8 | %54
 x8 | x8 | x8 | x8 | x8 | x8 | x8 | C,4 B,,2 x2 | x8 | x8 | x8 | x8 | x8 | x8 | x8 | x8 | x8 | x8 | %72
 x8 | x8 | x8 | x8 | x8 | x8 | x8 | x75/8 | x8 | x8 | x8 | x8 | x8 | x8 | x8 | x8 | x8 | D,6 x2 | %90
 x8 | x8 | x8 | x8 | x8 | x8 | x8 | x8 | x8 | x8 | x8 | x8 | x8 | C,4 B,,2 x2 | x8 | x8 | x8 | x8 | %108
 x8 | x8 | x8 | x8 | x8 | x8 | x8 | x8 | x8 | x8 |] %118

